!!!OTL: Santa Claus Is Coming To Town
!!!COM: Coots, John Frederick
!!!ODT: 1932
!!!LYR: Gillespie, Haven
!!!YOR: The Christmas Fake Book
!!!YOY: 1990
!!!AST: Christmas song
!!!YEC: Brian Luke, 2001
**kern	**harm
*k[]	*k[]
*M4/4	*M4/4
*C:	*C:
*>A	*>A
4g	.
=1	=1
8e	I
8f	.
4g	.
4.g	Ib
8g	.
=2	=2
8a	IV
8b	.
4cc	.
2cc	iv
=3	=3
8e	I
8f	.
4g	.
4g	V7/IV
4g	.
=4	=4
8a	IV
8g	.
4f	.
2f	iv
=5	=5
4e	I
4g	.
4c	vi
4e	.
=6	=6
4d	ii
2f	.
.	V7
4B	.
=7	=7
1c	I;
=8	=8
2.r	V7
*>A	*>A
4g	.
=9	=9
8e	I
8f	.
4g	.
4.g	Ib
8g	.
=10	=10
8a	IV
8b	.
4cc	.
2cc	iv
=11	=11
8e	I
8f	.
4g	.
4g	V7/IV
4g	.
=12	=12
8a	IV
8g	.
4f	.
2f	iv
=13	=13
4e	I
4g	.
4c	vi
4e	.
=14	=14
4d	ii
2f	.
.	V7
4B	.
=15	=15
1c	I
=16	=16
2.r	.
*>B	*>B
4cc	I
=17	=17
4dd	V7/IV
4cc	.
4b	.
4cc	.
=18	=18
4a	IV
2a	.
4cc	.
=19	=19
4dd	V7/IV
4cc	.
4b	.
4cc	.
=20	=20
2a	IV
4r	.
4dd	.
=21	=21
4ee	V7/V
4dd	.
4cc#	.
4dd	.
=22	=22
4b	V
4b	.
4b	viio7/vi
8b	.
8cc	.
=23	=23
4dd	vi7
4cc	.
4b	V7/V
4a	.
=24	=24
4g	V7;
4r	.
4g	V+
*>A'	*>A'
4g	.
=25	=25
8e	I
8f	.
4g	.
4.g	Ib
8g	.
=26	=26
8a	IV
8b	.
4cc	.
2cc	iv
=27	=27
8e	I
8f	.
4g	.
4g	V7/IV
4g	.
=28	=28
8a	IV
8g	.
4f	.
2f	iv
=29	=29
4e	I
4g	.
4c	vi
4e	.
=30	=30
4d	ii7
2f	.
.	V7
4dd	.
=31	=31
[1cc	I;
=32	=32
4cc]	.
2.r	.
*-	*-
